svg/u1f42c.svg

<svg viewBox="0 0 128 128" xmlns="http://www.w3.org/2000/svg">
  <path d="M15.57,49.21c-1.8,4.64-5.62,6.83-6.48,10.56c-0.99,4.32,3.1,8.73,7.18,8.59s13.08-5.04,16.19-6.76 c3.57-1.97,11.92-5.87,11.92-5.87l23.28-5.96L83.7,65.4l-1.41,12.95c0,0-0.84,3.38-2.67,6.62s-7.18,8.17-10.42,7.32 c-3.24-0.84-4.83-6.49-9.71-8.87c-5.77-2.82-14.5-3.1-14.78-0.7s4.22,3.24,5.35,4.5c1.13,1.27,2.67,6.48,4.36,8.17 c1.69,1.69,5.35,4.08,5.35,4.08s-3.66,4.65-3.94,8.31s0.42,7.32-0.14,8.59c-0.56,1.27-3.94,4.93-2.25,6.19s10.84-5.21,13.37-10.14 c2.53-4.93,3.66-8.31,4.79-9.29s16.33-3.52,26.89-17.03s10.7-29.99,10.42-37.03c-0.28-7.04-3.28-13.47-0.75-17.41 s5.27-4.75,6.71-5.21c1.92-0.61,4.27-1.13,3.75-3.28c-0.39-1.65-2.16-6.1-12.11-8.45C99.49,13.07,92.29,15,92.29,15 S69.16-0.5,43.86,6.56c-24.21,6.76-31.82,22.81-31.53,31.82C12.49,43.58,16.55,46.68,15.57,49.21z" fill="#36B4E1"/>
  <path d="M61.88,49.49l-9.57,5.35c0,0,0.48,6.24,3.38,10.7c1.92,2.96,4.79,5.49,7.6,6.48 c3.33,1.17,6.88,1.16,7.04,0.28c0.28-1.55-2.2-3.48-3.38-6.76c-1.03-2.86-1.13-13.23-1.13-13.23L61.88,49.49z" fill="#006DA6"/>
  <path d="M42.88,56.39c0,0,12.81-13.94,27.45-11.97s18.21,12.62,17.32,24.35c-0.54,7.16-7.89,17.51-8.02,16.19 c-0.09-0.94,2.44-16.28-2.35-21.49c-5.52-6.01-12.15-7.79-18.49-8.07S42.88,56.39,42.88,56.39z" fill="#DDECF5"/>
  <path d="M40.84,31.33c1.35,2.09,0.84,4.62-1.06,5.84c-1.9,1.22-4.99,0.54-6.34-1.55s-0.87-5.23,1.2-6.12 C37.67,28.19,39.49,29.24,40.84,31.33z" fill="#2D2B30"/>
  <path d="M9.23,63.08c0,0,3.43,0.1,5.14-0.49c4.29-1.5,9.43-6.26,11.76-8.45c1.93-1.81,4.65-5,6.34-6.69 c1.69-1.69,3.31-3.52,4.08-3.24s1.55,2.25,1.34,3.1c-0.21,0.84-5.91,5.91-8.66,8.45c-2.75,2.53-7.32,6.69-10.56,8.31 c-1.41,0.71-3.94,1.81-6.83,1.55C10.08,65.46,9.16,63.71,9.23,63.08z" fill="#006DA6"/>
  <path d="M60.69,30.07c0.68,1.05,3.1-0.27,4.5-1.06c1.76-0.99,8.66-5.14,15.35-5.7 c6.69-0.56,11.68,1.76,12.81,2.25c1.13,0.49,3.73,1.62,3.73,2.25c0,0.63-6.35,3.6-9.01,5.35c-2.67,1.76-7.04,3.87-9.92,4.5 c-2.35,0.52-6.9-0.14-6.97,1.2c-0.07,1.34-0.42,2.11,5.14,2.11s15.13-5.77,17.25-7.18s9.64-5.14,9.08-6.48 c-0.8-1.9-9.78-7.56-21.54-7.32c-10.21,0.21-15.77,4.72-18.3,6.62C62.19,27.07,59.91,28.87,60.69,30.07z" fill="#006DA6"/>
</svg>

<svg viewBox="0 0 128 128" xmlns="http://www.w3.org/2000/svg">
  <defs/>
  <path d="M15.57,49.21 C13.77,53.85 9.95,56.04 9.09,59.77 C8.1,64.09 12.19,68.5 16.27,68.36 C20.35,68.22 29.35,63.32 32.46,61.6 C36.03,59.63 44.38,55.73 44.38,55.73 L67.66,49.77 L83.7,65.4 L82.29,78.35 C82.29,78.35 81.45,81.73 79.62,84.97 C77.79,88.21 72.44,93.14 69.2,92.29 C65.96,91.45 64.37,85.8 59.49,83.42 C53.72,80.6 44.99,80.32 44.71,82.72 C44.43,85.12 48.93,85.96 50.06,87.22 C51.19,88.49 52.73,93.7 54.42,95.39 C56.11,97.08 59.77,99.47 59.77,99.47 C59.77,99.47 56.11,104.12 55.83,107.78 C55.55,111.44 56.25,115.1 55.69,116.37 C55.13,117.64 51.75,121.3 53.44,122.56 C55.13,123.82 64.28,117.35 66.81,112.42 C69.34,107.49 70.47,104.11 71.6,103.13 C72.73,102.15 87.93,99.61 98.49,86.1 C109.05,72.59 109.19,56.11 108.91,49.07 C108.63,42.03 105.63,35.6 108.16,31.66 C110.69,27.72 113.43,26.91 114.87,26.45 C116.79,25.84 119.14,25.32 118.62,23.17 C118.23,21.52 116.46,17.07 106.51,14.72 C99.49,13.07 92.29,15 92.29,15 C92.29,15 69.16,-0.5 43.86,6.56 C19.65,13.32 12.04,29.37 12.33,38.38 C12.49,43.58 16.55,46.68 15.57,49.21 Z" fill="#36B4E1"/>
  <path d="M61.88,49.49 L52.31,54.84 C52.31,54.84 52.79,61.08 55.69,65.54 C57.61,68.5 60.48,71.03 63.29,72.02 C66.62,73.19 70.17,73.18 70.33,72.3 C70.61,70.75 68.13,68.82 66.95,65.54 C65.92,62.68 65.82,52.31 65.82,52.31 L61.88,49.49 Z" fill="#006DA6"/>
  <path d="M42.88,56.39 C42.88,56.39 55.69,42.45 70.33,44.42 C84.97,46.39 88.54,57.04 87.65,68.77 C87.11,75.93 79.76,86.28 79.63,84.96 C79.54,84.02 82.07,68.68 77.28,63.47 C71.76,57.46 65.13,55.68 58.79,55.4 C52.45,55.12 42.88,56.39 42.88,56.39 Z" fill="#DDECF5"/>
  <path d="M40.84,31.33 C42.19,33.42 41.68,35.95 39.78,37.17 C37.88,38.39 34.79,37.71 33.44,35.62 C32.09,33.53 32.57,30.39 34.64,29.5 C37.67,28.19 39.49,29.24 40.84,31.33 Z" fill="#2D2B30"/>
  <path d="M9.23,63.08 C9.23,63.08 12.66,63.18 14.37,62.59 C18.66,61.09 23.8,56.33 26.13,54.14 C28.06,52.33 30.78,49.14 32.47,47.45 C34.16,45.76 35.78,43.93 36.55,44.21 C37.32,44.49 38.1,46.46 37.89,47.31 C37.68,48.15 31.98,53.22 29.23,55.76 C26.48,58.29 21.91,62.45 18.67,64.07 C17.26,64.78 14.73,65.88 11.84,65.62 C10.08,65.46 9.16,63.71 9.23,63.08 Z" fill="#006DA6"/>
  <path d="M60.69,30.07 C61.37,31.12 63.79,29.8 65.19,29.01 C66.95,28.02 73.85,23.87 80.54,23.31 C87.23,22.75 92.22,25.07 93.35,25.56 C94.48,26.05 97.08,27.18 97.08,27.81 C97.08,28.44 90.73,31.41 88.07,33.16 C85.4,34.92 81.03,37.03 78.15,37.66 C75.8,38.18 71.25,37.52 71.18,38.86 C71.11,40.2 70.76,40.97 76.32,40.97 C81.88,40.97 91.45,35.2 93.57,33.79 C95.69,32.38 103.21,28.65 102.65,27.31 C101.85,25.41 92.87,19.75 81.11,19.99 C70.9,20.2 65.34,24.71 62.81,26.61 C62.19,27.07 59.91,28.87 60.69,30.07 Z" fill="#006DA6"/>
</svg>
